X:1
T:Vesper (Cottage), SM
T:Vesper (Cottage), SM
T:William Bradbury & Sylvester Main, 1859
T:Public Domain Courtesy of the Cyber Hymnal™
C:William Bradbury & Sylvester Main, 1859
Z:Public Domain
Z:Courtesy of the Cyber Hymnal™
%%score 1 ( 2 3 ) 4
L:1/8
Q:1/4=110
M:4/4
K:A
V:1 treble 
V:2 treble 
V:3 treble 
V:4 bass 
V:1
 A4 | A2 F2 G2 B2 | A4 E4 | A2 c2 ed c2 | G4 B4 | (AB) c2 (cB) A2 | A2 A2 !fermata!A2 !fermata!A2 | %7
 A2 F2 G2 B2 | A4 |] %9
V:2
 [CA]4 | [DF]2 (AF) [B,E]2 (FG) | [CA]4 [CA]4 | [Ec]2 [Ee]2 (cB) [EA]2 | [EB]4 [Ee]4 | %5
 (cB) [EA]2 (AB) [Ec]2 | (BA) [DF]2 !fermata![CE]2 !fermata![EA]2 | [DF]2 (AF) [B,E]2 (FG) | %8
 [CA]4 |] %9
V:3
 x4 | x2 D2 x D2 x | x8 | x4 E2 x2 | x8 | E2 x E2 x3 | F2 x6 | x2 D2 x D2 x | x4 |] %9
V:4
 A,,4 | D,2 D,2 E,2 D,2 | A,,4 A,,4 | A,,2 A,,2 A,2 A,,2 | E,4 G,4 | A,2 A,2 A,,2 A,,2 | %6
 D,2 D,2 !fermata!A,,2 !fermata!C,2 | D,2 D,2 E,2 E,2 | A,,4 |] %9

